static/fa/svgs/solid/arrow-down-up-lock.svg

<svg xmlns="http://www.w3.org/2000/svg" viewBox="0 0 640 512"><!--! Font Awesome Free 6.1.1 by @fontawesome - https://fontawesome.com License - https://fontawesome.com/license/free (Icons: CC BY 4.0, Fonts: SIL OFL 1.1, Code: MIT License) Copyright 2022 Fonticons, Inc.--><path d="m105.4 502.6-96.027-96c-12.497-12.5-12.497-32.7 0-45.2s32.757-12.5 45.257 0L96 402.7V287.1H32c-17.67 0-32-13.4-32-32 0-16.8 14.33-32 32-32h256V109.3l-41.4 41.3c-12.5 12.5-32.7 12.5-45.2 0s-12.5-32.7 0-45.2l96-96.028C303.4 3.371 311.5 0 320 0c8.5 0 16.6 3.372 22.6 9.372l96 96.028c12.5 12.5 12.5 32.7 0 45.2s-32.7 12.5-45.2 0L352 109.3v113.8h74.8c-6.9 15.4-10.8 31.7-10.8 48v16H160v115.6l41.4-41.3c12.5-12.5 32.7-12.5 45.2 0s12.5 32.7 0 45.2l-96 96c-12.5 12.5-32.7 12.5-45.2 0zM96 191.1v-128c0-16.77 14.3-32 32-32s32 15.23 32 32v128H96zm256 128V448c0 17.7-14.3 32-32 32s-32-14.3-32-32V319.1h64zm176-128c44.2 0 80 36.7 80 80v48c17.7 0 32 15.2 32 32.9v128c0 17.7-14.3 32-32 32H448c-17.7 0-32-14.3-32-32V352c0-17.7 14.3-32.9 32-32.9v-48c0-43.3 35.8-80 80-80zm0 48c-17.7 0-32 15.2-32 32v48h64v-48c0-16.8-14.3-32-32-32z"/></svg>

<svg xmlns="http://www.w3.org/2000/svg" viewBox="0 0 640 512"><!--! Font Awesome Free 6.1.1 by @fontawesome - https://fontawesome.com License - https://fontawesome.com/license/free (Icons: CC BY 4.0, Fonts: SIL OFL 1.1, Code: MIT License) Copyright 2022 Fonticons, Inc. --><path d="M105.4 502.6L9.373 406.6C-3.124 394.1-3.124 373.9 9.373 361.4C21.87 348.9 42.13 348.9 54.63 361.4L96 402.7V287.1H32C14.33 287.1 0 273.7 0 255.1C0 238.3 14.33 223.1 32 223.1H288V109.3L246.6 150.6C234.1 163.1 213.9 163.1 201.4 150.6C188.9 138.1 188.9 117.9 201.4 105.4L297.4 9.372C303.4 3.371 311.5 0 320 0C328.5 0 336.6 3.372 342.6 9.372L438.6 105.4C451.1 117.9 451.1 138.1 438.6 150.6C426.1 163.1 405.9 163.1 393.4 150.6L352 109.3V223.1H426.8C419.9 238.5 416 254.8 416 271.1V287.1H160V402.7L201.4 361.4C213.9 348.9 234.1 348.9 246.6 361.4C259.1 373.9 259.1 394.1 246.6 406.6L150.6 502.6C138.1 515.1 117.9 515.1 105.4 502.6H105.4zM96 191.1V63.1C96 46.33 110.3 31.1 128 31.1C145.7 31.1 160 46.33 160 63.1V191.1H96zM352 319.1V448C352 465.7 337.7 480 320 480C302.3 480 288 465.7 288 448V319.1H352zM528 191.1C572.2 191.1 608 227.8 608 271.1V319.1C625.7 319.1 640 334.3 640 352V480C640 497.7 625.7 512 608 512H448C430.3 512 416 497.7 416 480V352C416 334.3 430.3 319.1 448 319.1V271.1C448 227.8 483.8 191.1 528 191.1zM528 239.1C510.3 239.1 496 254.3 496 271.1V319.1H560V271.1C560 254.3 545.7 239.1 528 239.1z"/></svg>
